build/finance/CardSolid.svg

<svg xmlns="http://www.w3.org/2000/svg" fill="none" viewBox="0 0 24 24" focusable="false"><path d="M0 0H24V24H0z"/><path fill="#74767B" fill-rule="evenodd" d="M6 19C4.34314 19 3 17.6569 3 16L3 8C3 6.34315 4.34315 5 6 5L18 5C18.1036 5 18.2059 5.00525 18.3067 5.01549C19.8195 5.16912 21 6.4467 21 8L21 16C21 17.6569 19.6569 19 18 19L6 19ZM6.01859 8.89563C6.01859 8.46996 6.37006 8.12488 6.80362 8.12488L8.73583 8.12488C9.16939 8.12488 9.52086 8.46996 9.52086 8.89563L9.52086 10.8564C9.52086 11.2821 9.16939 11.6272 8.73583 11.6272L6.80362 11.6272C6.37006 11.6272 6.01859 11.2821 6.01859 10.8564L6.01859 8.89563ZM6.66859 14.8308C6.3096 14.8308 6.01859 15.1218 6.01859 15.4808C6.01859 15.8398 6.3096 16.1308 6.66859 16.1308L8.3615 16.1308C8.72048 16.1308 9.0115 15.8398 9.0115 15.4808C9.0115 15.1218 8.72048 14.8308 8.3615 14.8308L6.66859 14.8308ZM15.0148 15.4808C15.0148 15.1218 15.3058 14.8308 15.6648 14.8308L17.3577 14.8308C17.7167 14.8308 18.0077 15.1218 18.0077 15.4808C18.0077 15.8398 17.7167 16.1308 17.3577 16.1308L15.6648 16.1308C15.3058 16.1308 15.0148 15.8398 15.0148 15.4808ZM11.1536 14.8308C10.7946 14.8308 10.5036 15.1218 10.5036 15.4808C10.5036 15.8398 10.7946 16.1308 11.1536 16.1308L12.8465 16.1308C13.2055 16.1308 13.4965 15.8398 13.4965 15.4808C13.4965 15.1218 13.2055 14.8308 12.8465 14.8308L11.1536 14.8308Z"/></svg>

<svg xmlns="http://www.w3.org/2000/svg" fill="none" viewBox="0 0 24 24" focusable="false"><path fill="#74767B" fill-rule="evenodd" d="M6 19c-1.66 0-3-1.35-3-3V8c0-1.66 1.34-3 3-3h12c.1 0 .2 0 .3.01C19.81 5.16 21 6.44 21 8v8c0 1.65-1.35 3-3 3zm.01-10.11c0-.43.36-.77.79-.77h1.93c.43 0 .79.34.79.77v1.96c0 .43-.36.77-.79.77H6.8c-.43 0-.79-.34-.79-.77zm.65 5.94c-.36 0-.65.29-.65.65 0 .35.29.65.65.65h1.7c.36 0 .65-.3.65-.65 0-.36-.29-.65-.65-.65zm8.35.65c0-.36.29-.65.65-.65h1.69c.36 0 .65.29.65.65 0 .35-.29.65-.65.65h-1.69c-.36 0-.65-.3-.65-.65m-3.86-.65c-.36 0-.65.29-.65.65 0 .35.29.65.65.65h1.69c.36 0 .65-.3.65-.65 0-.36-.29-.65-.65-.65z"/></svg>
